X:1
T:G Major Oliver Holden, 1800
T:Issac Watts, 1719 (Psalm 145)    88. 88. (L. M.)
T:Various Praise No copyright. Transcribed from Plain Psalmody, 1800.
%%score [ 1 2 3 4 ]
L:1/8
M:4/4
K:G
V:1 treble nm="Treble" snm="Tr."
V:2 treble nm="Counter" snm="C."
V:3 treble-8 nm="Tenor" snm="T."
V:4 bass nm="Bass" snm="B."
V:1
 G4 | B2 d2 A2 c2 | B4 A4 | !fermata!B4 G4 | F2 D2 F2 A2 | (G2 d2 ^ce) dc | !fermata!d4 B4 | %7
w: |||||||
 cB Ac B3 B | cB AG (G4 | F2) A2 (B2 G2 | Ac) BA G4 | G4 (cdec | B4) c4 | B8 | B4 A3 G | %15
w: ||* 'Til grace~ *|* * ~and * glo-|ry raise~ * * *|* the|song.|The wings of|
 (A2 B2 c2) d2 | B3 A B2 d2 | e2 d2 c2 B2 | (A2 B2 c2) A2 | B8 | d4 d3 d | d6 [Bg]2 | e2 A2 A3 B | %23
w: eve- * * ry|hour shall bear Some|thank- ful tri- bute|to~~ * * Thine|ear;||||
 c2 B2 d2 B2 | G4 c4 | B8 |] %26
w: |||
V:2
 D4 | D2 G2 F2 D2 | D4 D4 | !fermata!D4 D4 | D2 D2 D2 D2 | (G2 F2 E2) G2 | !fermata!F4 G4 | %7
w: 1.~My|God, my King, Thy|var- ious|praise Shall|fill the rem- nant|of~ * * my|days; Thy|
 D2 D2 D3 D | D2 D2 D4- | D2 D2 G4 | F4 G4 | E4 (F4 | G4) F4 | G8 | z8 | z8 | z8 | z8 | z8 | z8 | %20
w: grace em- ploy my|hum- ble tongue,~|* 'Til grace|and glo-|ry raise~|* the|song.|||||||
 G4 F3 F | G6 G2 | G2 G2 F3 G | G2 G2 G2 G2 | G4 F4 | G8 |] %26
w: And eve- ry|set- ting|sun shall see New|works of du- ty|done for|Thee.|
V:3
 D4 | G2 B2 c2 A2 | G4 A4 | !fermata!G4 B4 | A2 G2 A2 c2 | (B2 F2 AG) FE | !fermata!D4 d4 | %7
w: |||||||
 AB cA G3 G | AB cB (B4 | A2) D2 (G2 B2 | cA) GF (G2 c2 | ed) cB (ABcA | G4) A4 | G8 | z8 | z8 | %16
w: ||* 'Til grace~~ *|* * ~and * glo- *|* * ry * raise~ * * *|* the|song.|||
 z8 | z8 | z8 | z8 | B4 A3 A | B6 d2 | ^c2 e2 d3 d | e2 d2 B2 d2 | B4 A4 | G8 |] %26
w: ||||||||||
V:4
 [G,,G,]4 | [B,,G,]2 [G,,G,]2 D,2 D,2 | B,,4 D,4 | !fermata!G,,4 G,4 | D,2 D,2 D,2 D,2 | %5
w: |||||
 (B,,2 D,2 A,2) A,,2 | !fermata!D,4 G,4 | F,2 D,2 G,3 G, | F,2 D,2 D,4- | D,2 D,2 B,,4 | D,4 G,,4 | %11
w: ||||* 'Til ~~grace|and glo-|
 C,4 D,4- | D,4 D,4 | G,,8 | G,4 D,3 D, | D,6 D,2 | G,3 D, G,2 B,2 | C2 B,2 A,2 G,2 | D,6 D,2 | %19
w: ry raise~|* the|song.|The wings of|eve- ry|hour shall bear Some|thank- ful tri- bute|to~ Thine|
 G,8 | G,4 D,3 D, | G,6 B,2 | A,2 A,2 D,3 G, | C2 B,2 G,2 B,2 | D4 D,4 | G,8 |] %26
w: ear;|||||||

